!!! OTL: Berkowitz140
!!! Chapter: 1
!!! Section: I
!!! Page: 32
!!! Mode: 
!!! Encoder: DJB
**kern
*staff1
*I"Piano
=1-
*clefG2
*k[b-e-a-d-g-]
*D-:
*M4/4
4a-/
8f/L
8g-/J
4a-/
4dd-\
=2
4.cc\
8b-\
4a-/
4r
=3
4f/
8d-/L
8e-/J
4f/
8a-/L
8g-/J
=4
2f/
4e-/
4r
=5
4d-/
8e-/L
8f/J
4g-/
8a-/L
8b-/J
=6
4a-/
4dd-\
4cc\
4b-\
=7
4a-/
8g-/L
8f/J
4.e-/
8f/
=8
!!linebreak:original
2e-/
4d-/
4r
==
*-
